ligands/haptic/eta5-Cp-cyclopentyl.svg

<svg height="48" viewBox="0 0 66 48" width="66" xmlns="http://www.w3.org/2000/svg"><g transform="matrix(.05 0 0 .05 -159 -191)"><path d="m3509.59 4258.89-89.47 80-182.83-307.4 35.54 11.44z"/><path d="m4405.46 4050.43 37.3-10.27-206.21 298.73-89.53-80z"/><path d="m3849.08 3893.6.22-20.71 593.46 167.27-37.3 10.27z"/><path d="m3849.3 3872.89-.22 20.71-576.25 149.33-35.54-11.44z"/><path d="m3838.25 4218.82c211.02 0 384.74-57.27 384.74-126.4 0-69.99-173.72-127.32-384.74-127.32-210.95 0-383.74 57.33-383.74 127.32 0 69.13 172.79 126.4 383.74 126.4" fill="none" stroke="#000" stroke-width="20"/><path d="m3850 4740h-20v-54.55h20z"/><path d="m3850 4630.91h-20v-54.55h20z"/><path d="m3850 4521.82h-20v-54.55h20z"/><path d="m3850 4412.73h-20v-33.84h20z"/><path d="m3850 4194.55h-20v-54.55h20z"/><path d="m4147.02 4258.89 89.53 80h-816.43l89.47-80z"/></g></svg>

<svg xmlns="http://www.w3.org/2000/svg" xmlns:xlink="http://www.w3.org/1999/xlink" width="66" height="48" version="1.1" viewBox="0 0 66 48" style="background-color:#ffffff00"><path fill="#000" stroke="none" d="M 3509.59,4258.89 L 3420.12,4338.89 L 3237.29,4031.49 L 3272.83,4042.93 L 3509.59,4258.89 Z" transform="matrix(0.05 0 0 0.05 -159 -191)"/><path fill="#000" stroke="none" d="M 4405.46,4050.43 L 4442.76,4040.16 L 4236.55,4338.89 L 4147.02,4258.89 L 4405.46,4050.43 Z" transform="matrix(0.05 0 0 0.05 -159 -191)"/><path fill="#000" stroke="none" d="M 3849.08,3893.6 L 3849.3,3872.89 L 4442.76,4040.16 L 4405.46,4050.43 L 3849.08,3893.6 Z" transform="matrix(0.05 0 0 0.05 -159 -191)"/><path fill="#000" stroke="none" d="M 3849.3,3872.89 L 3849.08,3893.6 L 3272.83,4042.93 L 3237.29,4031.49 L 3849.3,3872.89 Z" transform="matrix(0.05 0 0 0.05 -159 -191)"/><path fill="none" stroke="#000" stroke-width="20" d="M 3838.25,4218.82 C 4049.27,4218.82 4222.99,4161.55 4222.99,4092.42 C 4222.99,4022.43 4049.27,3965.1 3838.25,3965.1 C 3627.3,3965.1 3454.51,4022.43 3454.51,4092.42 C 3454.51,4161.55 3627.3,4218.82 3838.25,4218.82" transform="matrix(0.05 0 0 0.05 -159 -191)"/><path fill="#000" stroke="none" d="M 3850,4740 L 3830,4740 L 3830,4685.45 L 3850,4685.45 L 3850,4740 L 3850,4740 Z" transform="matrix(0.05 0 0 0.05 -159 -191)"/><path fill="#000" stroke="none" d="M 3850,4630.91 L 3830,4630.91 L 3830,4576.36 L 3850,4576.36 L 3850,4630.91 L 3850,4630.91 Z" transform="matrix(0.05 0 0 0.05 -159 -191)"/><path fill="#000" stroke="none" d="M 3850,4521.82 L 3830,4521.82 L 3830,4467.27 L 3850,4467.27 L 3850,4521.82 L 3850,4521.82 Z" transform="matrix(0.05 0 0 0.05 -159 -191)"/><path fill="#000" stroke="none" d="M 3850,4412.73 L 3830,4412.73 L 3830,4378.89 L 3850,4378.89 L 3850,4412.73 L 3850,4412.73 Z" transform="matrix(0.05 0 0 0.05 -159 -191)"/><path fill="#000" stroke="none" d="M 3850,4194.55 L 3830,4194.55 L 3830,4140 L 3850,4140 L 3850,4194.55 L 3850,4194.55 Z" transform="matrix(0.05 0 0 0.05 -159 -191)"/><path fill="#000" stroke="none" d="M 4147.02,4258.89 L 4236.55,4338.89 L 3420.12,4338.89 L 3509.59,4258.89 L 4147.02,4258.89 Z" transform="matrix(0.05 0 0 0.05 -159 -191)"/></svg>
